X: 9196
T: Damhsa Na Síog
R: jig
M: 6/8
K: Amixolydian
A3 ABc|A2E ABc|BGEE2D|EGBd2c|
A3 ABc|A2E ABc|d3ded|B3BcB:|
|:Acazec|Ace dBG|A2e aec|B2d dcB|
Acazec|Ace dBG|Bcd dcB|1 B3BcB:|2 dcB dcB||

